;FLAVOR:UltiGCode
;TIME:17266
;MATERIAL:32099
;MATERIAL2:0
;NOZZLE_DIAMETER:0.4
;MINX:54.653
;MINY:55.819
;MINZ:0.27
;MAXX:167.659
;MAXY:167.181
;MAXZ:40.77
;Generated with Cura_SteamEngine 5.2.2
M82 ;absolute extrusion mode
G0 F3000 Y50 ;avoid prime blob
G92 E0
G92 E0
G10
;LAYER_COUNT:271
;LAYER:0
M107
G0 F9000 X57.755 Y74.625 Z0.27
;TYPE:SKIRT
G11
G1 F1800 X58.403 Y74.174 E0.08527
G1 X59.094 Y73.79 E0.17064
G1 X59.819 Y73.478 E0.25589
G1 X60.572 Y73.241 E0.34114
G1 X61.346 Y73.082 E0.42648
G1 X62.228 Y72.991 E0.52224
G1 X90.045 Y72.991 E3.52648
G1 X90.045 Y63.619 E4.53865
G1 X90.085 Y62.83 E4.62398
G1 X90.204 Y62.05 E4.70919
G1 X90.402 Y61.285 E4.79453
G1 X90.676 Y60.545 E4.87975
G1 X91.024 Y59.836 E4.96505
G1 X91.442 Y59.165 E5.05043
G1 X91.925 Y58.541 E5.13565
G1 X92.468 Y57.968 E5.22091
G1 X93.067 Y57.453 E5.30623
G1 X93.715 Y57.002 E5.39149
G1 X94.406 Y56.618 E5.47687
G1 X95.131 Y56.306 E5.56211
G1 X95.884 Y56.069 E5.64737
G1 X96.658 Y55.91 E5.73271
G1 X97.54 Y55.819 E5.82847
G1 X99.1 Y55.819 E5.99695
G1 X99.889 Y55.859 E6.08227
G1 X100.669 Y55.978 E6.16748
G1 X101.434 Y56.176 E6.25283
G1 X102.174 Y56.45 E6.33805
G1 X102.883 Y56.798 E6.42335
G1 X103.252 Y57.028 E6.47031
G1 X103.979 Y56.618 E6.56045
G1 X104.705 Y56.306 E6.64579
G1 X105.458 Y56.07 E6.73102
G1 X106.231 Y55.91 E6.81627
G1 X107.114 Y55.819 E6.91214
G1 X109.495 Y55.819 E7.16929
G1 X110.284 Y55.859 E7.25461
G1 X111.064 Y55.978 E7.33982
G1 X111.829 Y56.176 E7.42516
G1 X112.569 Y56.45 E7.51039
G1 X113.593 Y56.953 E7.6336
G1 X114.051 Y56.698 E7.69022
G1 X114.777 Y56.386 E7.77556
G1 X115.53 Y56.15 E7.86078
G1 X116.303 Y55.99 E7.94604
G1 X117.186 Y55.899 E8.0419
G1 X122.515 Y55.899 E8.61744
G1 X123.304 Y55.939 E8.70276
G1 X124.084 Y56.058 E8.78797
G1 X124.849 Y56.256 E8.87331
G1 X125.589 Y56.53 E8.95854
G1 X126.461 Y56.958 E9.06345
G1 X127.073 Y56.618 E9.13906
G1 X127.798 Y56.306 E9.2243
G1 X128.551 Y56.069 E9.30956
G1 X129.325 Y55.91 E9.39489
G1 X130.207 Y55.819 E9.49066
G1 X153.635 Y55.819 E12.02088
G1 X154.424 Y55.859 E12.1062
G1 X155.204 Y55.978 E12.19142
G1 X155.969 Y56.176 E12.27676
G1 X156.709 Y56.45 E12.36198
G1 X157.418 Y56.798 E12.44728
G1 X158.089 Y57.216 E12.53266
G1 X158.713 Y57.699 E12.61788
G1 X159.286 Y58.242 E12.70314
G1 X159.801 Y58.841 E12.78845
G1 X160.252 Y59.489 E12.87372
G1 X160.636 Y60.18 E12.9591
G1 X160.948 Y60.905 E13.04434
G1 X161.185 Y61.658 E13.12959
G1 X161.344 Y62.432 E13.21493
G1 X161.435 Y63.314 E13.31069
G1 X161.436 Y95.789 E16.81799
G1 X161.396 Y96.577 E16.90321
G1 X161.277 Y97.358 E16.98853
G1 X161.079 Y98.123 E17.07387
G1 X160.805 Y98.863 E17.15909
G1 X160.457 Y99.572 E17.24439
G1 X160.04 Y100.243 E17.32971
G1 X159.556 Y100.867 E17.415
G1 X159.013 Y101.44 E17.50026
G1 X158.414 Y101.954 E17.5855
G1 X157.766 Y102.406 E17.67083
G1 X157.076 Y102.79 E17.75611
G1 X156.35 Y103.102 E17.84146
G1 X155.597 Y103.338 E17.92668
G1 X154.824 Y103.498 E18.01193
G1 X153.941 Y103.589 E18.1078
G1 X130.512 Y103.589 E20.63814
G1 X129.723 Y103.549 E20.72346
G1 X128.943 Y103.43 E20.80867
G1 X128.178 Y103.232 E20.89401
G1 X127.438 Y102.958 E20.97924
G1 X126.414 Y102.455 E21.10245
G1 X125.956 Y102.71 E21.15906
G1 X125.23 Y103.022 E21.24441
G1 X124.477 Y103.258 E21.32963
G1 X123.704 Y103.418 E21.41488
G1 X122.821 Y103.509 E21.51075
G1 X117.492 Y103.509 E22.08629
G1 X116.703 Y103.469 E22.17161
G1 X115.923 Y103.35 E22.25682
G1 X115.158 Y103.152 E22.34216
G1 X114.418 Y102.878 E22.42739
G1 X113.546 Y102.45 E22.5323
G1 X112.934 Y102.79 E22.60791
G1 X112.209 Y103.102 E22.69315
G1 X111.456 Y103.339 E22.77841
G1 X110.682 Y103.498 E22.86374
G1 X109.8 Y103.589 E22.95951
G1 X107.42 Y103.589 E23.21655
G1 X106.631 Y103.549 E23.30187
G1 X105.851 Y103.43 E23.38708
G1 X105.086 Y103.232 E23.47242
G1 X104.346 Y102.958 E23.55765
G1 X103.637 Y102.61 E23.64295
G1 X103.268 Y102.38 E23.68991
G1 X102.423 Y102.856 E23.79465
G1 X102.423 Y114.811 E25.08579
G1 X122.07 Y114.811 E27.20766
G1 X122.859 Y114.851 E27.29299
G1 X123.639 Y114.97 E27.3782
G1 X124.404 Y115.168 E27.46354
G1 X125.144 Y115.442 E27.54877
G1 X125.853 Y115.79 E27.63406
G1 X126.524 Y116.208 E27.71944
G1 X127.148 Y116.691 E27.80467
G1 X127.66 Y117.176 E27.88083
G1 X128.597 Y116.982 E27.98417
G1 X129.48 Y116.891 E28.08004
G1 X132.267 Y116.891 E28.38104
G1 X133.056 Y116.931 E28.46636
G1 X133.836 Y117.05 E28.55157
G1 X134.367 Y117.188 E28.61083
G1 X135.097 Y116.536 E28.71654
G1 X135.736 Y116.072 E28.80182
G1 X136.419 Y115.676 E28.88709
G1 X137.138 Y115.351 E28.9723
G1 X137.887 Y115.1 E29.05762
G1 X138.657 Y114.925 E29.1429
G1 X139.441 Y114.83 E29.22819
G1 X139.989 Y114.811 E29.28741
G1 X159.858 Y114.811 E31.43326
G1 X160.647 Y114.851 E31.51858
G1 X161.427 Y114.97 E31.6038
G1 X162.192 Y115.168 E31.68914
G1 X162.932 Y115.442 E31.77436
G1 X163.641 Y115.79 E31.85966
G1 X164.312 Y116.208 E31.94504
G1 X164.936 Y116.691 E32.03026
G1 X165.509 Y117.234 E32.11552
G1 X166.024 Y117.833 E32.20083
G1 X166.475 Y118.481 E32.2861
G1 X166.859 Y119.172 E32.37148
G1 X167.171 Y119.897 E32.45672
G1 X167.408 Y120.65 E32.54198
G1 X167.567 Y121.424 E32.62731
G1 X167.658 Y122.305 E32.72297
G1 X167.659 Y125.064 E33.02094
G1 X167.645 Y125.629 E33.08198
G1 X167.644 Y156.342 E36.39898
G1 X167.659 Y156.936 E36.46316
G1 X167.659 Y159.381 E36.72722
G1 X167.619 Y160.17 E36.81254
G1 X167.5 Y160.95 E36.89775
G1 X167.302 Y161.715 E36.98309
G1 X167.028 Y162.455 E37.06832
G1 X166.68 Y163.164 E37.15362
G1 X166.262 Y163.835 E37.23899
G1 X165.779 Y164.459 E37.32422
G1 X165.236 Y165.032 E37.40947
G1 X164.637 Y165.547 E37.49479
G1 X163.989 Y165.998 E37.58005
G1 X163.298 Y166.382 E37.66543
G1 X162.573 Y166.694 E37.75067
G1 X161.82 Y166.931 E37.83593
G1 X161.046 Y167.09 E37.92127
G1 X160.164 Y167.181 E38.01703
G1 X139.983 Y167.181 E40.19658
G1 X139.194 Y167.141 E40.2819
G1 X138.414 Y167.022 E40.36711
G1 X137.649 Y166.824 E40.45246
G1 X136.909 Y166.55 E40.53768
G1 X136.2 Y166.202 E40.62298
G1 X135.529 Y165.784 E40.70836
G1 X134.905 Y165.301 E40.79358
G1 X134.393 Y164.816 E40.86975
G1 X133.456 Y165.01 E40.97309
G1 X132.573 Y165.101 E41.06896
G1 X129.786 Y165.101 E41.36995
G1 X128.997 Y165.061 E41.45527
G1 X128.217 Y164.942 E41.54049
G1 X127.686 Y164.804 E41.59974
G1 X126.953 Y165.459 E41.70591
G1 X126.313 Y165.922 E41.79122
G1 X125.63 Y166.318 E41.87648
G1 X124.91 Y166.643 E41.9618
G1 X124.161 Y166.894 E42.04711
G1 X123.391 Y167.067 E42.13235
G1 X122.607 Y167.162 E42.21764
G1 X122.064 Y167.181 E42.27632
G1 X99.263 Y167.181 E44.73882
G1 X98.474 Y167.141 E44.82415
G1 X97.694 Y167.022 E44.90936
G1 X96.929 Y166.824 E44.9947
G1 X96.189 Y166.55 E45.07993
G1 X95.48 Y166.202 E45.16522
G1 X94.809 Y165.784 E45.2506
G1 X94.185 Y165.301 E45.33582
G1 X93.612 Y164.758 E45.42108
G1 X93.097 Y164.159 E45.5064
G1 X92.646 Y163.511 E45.59166
G1 X92.262 Y162.82 E45.67704
G1 X91.95 Y162.095 E45.76228
G1 X91.713 Y161.342 E45.84754
G1 X91.554 Y160.568 E45.93288
G1 X91.463 Y159.686 E46.02864
G1 X91.463 Y150.254 E47.04729
G1 X62.453 Y150.253 E50.18037
G1 X61.664 Y150.213 E50.2657
G1 X60.884 Y150.093 E50.35093
G1 X60.119 Y149.896 E50.43624
G1 X59.378 Y149.621 E50.5216
G1 X58.669 Y149.274 E50.60685
G1 X57.999 Y148.856 E50.69214
G1 X57.374 Y148.373 E50.77745
G1 X56.802 Y147.829 E50.8627
G1 X56.287 Y147.23 E50.94802
G1 X55.836 Y146.582 E51.03328
G1 X55.452 Y145.892 E51.11857
G1 X55.14 Y145.167 E51.20381
G1 X54.903 Y144.413 E51.28917
G1 X54.744 Y143.64 E51.3744
G1 X54.663 Y142.854 E51.45974
G1 X54.653 Y141.938 E51.55867
G1 X54.693 Y141.149 E51.64399
G1 X54.812 Y140.369 E51.72921
G1 X55.038 Y139.498 E51.82639
G1 X54.904 Y139.071 E51.87472
G1 X54.744 Y138.298 E51.95998
G1 X54.653 Y137.415 E52.05585
G1 X54.653 Y91.597 E57.00419
G1 X54.693 Y90.808 E57.08951
G1 X54.812 Y90.028 E57.17473
G1 X55.01 Y89.263 E57.26007
G1 X55.284 Y88.523 E57.34529
G1 X55.632 Y87.814 E57.43059
G1 X56.187 Y86.923 E57.54396
G1 X55.916 Y86.533 E57.59525
G1 X55.532 Y85.843 E57.68053
G1 X55.22 Y85.117 E57.76588
G1 X54.984 Y84.364 E57.8511
G1 X54.824 Y83.591 E57.93635
G1 X54.733 Y82.708 E58.03222
G1 X54.733 Y80.791 E58.23926
G1 X54.773 Y80.002 E58.32458
G1 X54.892 Y79.222 E58.40979
G1 X55.09 Y78.457 E58.49514
G1 X55.364 Y77.717 E58.58036
G1 X55.712 Y77.008 E58.66566
G1 X56.13 Y76.337 E58.75104
G1 X56.613 Y75.713 E58.83626
G1 X57.156 Y75.14 E58.92152
G1 X57.755 Y74.625 E59.00683
G0 F9000 X58.144 Y74.833
G1 F1800 X58.786 Y74.41 E59.08986
G1 X59.469 Y74.055 E59.173
G1 X60.184 Y73.774 E59.25597
G1 X60.926 Y73.568 E59.33913
G1 X61.684 Y73.44 E59.42216
G1 X62.533 Y73.391 E59.514
G1 X90.445 Y73.391 E62.5285
G1 X90.445 Y63.619 E63.58387
G1 X90.485 Y62.851 E63.66693
G1 X90.604 Y62.091 E63.75001
G1 X90.802 Y61.348 E63.83305
G1 X91.076 Y60.629 E63.91615
G1 X91.423 Y59.943 E63.99918
G1 X91.839 Y59.296 E64.08225
G1 X92.32 Y58.696 E64.16531
G1 X92.861 Y58.149 E64.2484
G1 X93.456 Y57.661 E64.3315
G1 X94.098 Y57.238 E64.41454
G1 X94.781 Y56.883 E64.49767
G1 X95.496 Y56.602 E64.58064
G1 X96.238 Y56.396 E64.66381
G1 X96.996 Y56.268 E64.74683
G1 X97.845 Y56.219 E64.83867
G1 X99.1 Y56.219 E64.97421
G1 X99.868 Y56.259 E65.05727
G1 X100.628 Y56.378 E65.14035
G1 X101.371 Y56.576 E65.2234
G1 X102.09 Y56.85 E65.30649
G1 X102.776 Y57.197 E65.38952
G1 X103.261 Y57.509 E65.4518
G1 X103.672 Y57.238 E65.50497
G1 X104.355 Y56.883 E65.58811
G1 X105.07 Y56.602 E65.67108
G1 X105.811 Y56.396 E65.75414
G1 X106.57 Y56.268 E65.83727
G1 X107.419 Y56.219 E65.92911
G1 X109.495 Y56.219 E66.15332
G1 X110.263 Y56.259 E66.23638
G1 X111.023 Y56.378 E66.31946
G1 X111.766 Y56.576 E66.4025
G1 X112.485 Y56.85 E66.4856
G1 X113.171 Y57.197 E66.56863
G1 X113.531 Y57.428 E66.61482
G1 X114.427 Y56.963 E66.72385
G1 X115.142 Y56.682 E66.80682
G1 X115.883 Y56.476 E66.88988
G1 X116.642 Y56.348 E66.97301
G1 X117.491 Y56.299 E67.06485
G1 X122.515 Y56.299 E67.60745
G1 X123.283 Y56.339 E67.6905
G1 X124.043 Y56.458 E67.77358
G1 X124.786 Y56.656 E67.85663
G1 X125.505 Y56.93 E67.93973
G1 X126.483 Y57.425 E68.05811
G1 X126.765 Y57.238 E68.09465
G1 X127.448 Y56.883 E68.17778
G1 X128.163 Y56.602 E68.26075
G1 X128.905 Y56.396 E68.34392
G1 X129.663 Y56.268 E68.42694
G1 X130.512 Y56.219 E68.51879
G1 X153.635 Y56.219 E71.01607
G1 X154.403 Y56.259 E71.09913
G1 X155.163 Y56.378 E71.18221
G1 X155.906 Y56.576 E71.26525
G1 X156.625 Y56.85 E71.34835
G1 X157.311 Y57.197 E71.43138
G1 X157.958 Y57.613 E71.51445
G1 X158.558 Y58.094 E71.59751
G1 X159.105 Y58.635 E71.68059
G1 X159.593 Y59.23 E71.7637
G1 X160.016 Y59.872 E71.84674
G1 X160.371 Y60.555 E71.92987
G1 X160.652 Y61.27 E72.01284
G1 X160.858 Y62.012 E72.09601
G1 X160.986 Y62.77 E72.17903
G1 X161.035 Y63.619 E72.27087
G1 X161.036 Y95.789 E75.74523
G1 X160.996 Y96.557 E75.82829
G1 X160.877 Y97.317 E75.91137
G1 X160.679 Y98.06 E75.99441
G1 X160.405 Y98.779 E76.07751
G1 X160.058 Y99.465 E76.16054
G1 X159.642 Y100.112 E76.24361
G1 X159.161 Y100.712 E76.32667
G1 X158.62 Y101.259 E76.40976
G1 X158.025 Y101.747 E76.49286
G1 X157.383 Y102.17 E76.5759
G1 X156.7 Y102.525 E76.65903
G1 X155.985 Y102.806 E76.742
G1 X155.244 Y103.012 E76.82506
G1 X154.485 Y103.14 E76.90819
G1 X153.636 Y103.189 E77.00004
G1 X130.512 Y103.189 E79.49743
G1 X129.744 Y103.149 E79.58048
G1 X128.984 Y103.03 E79.66357
G1 X128.241 Y102.832 E79.74661
G1 X127.522 Y102.558 E79.82971
G1 X126.836 Y102.211 E79.91274
G1 X126.476 Y101.98 E79.95893
G1 X125.58 Y102.445 E80.06796
G1 X124.865 Y102.726 E80.15092
G1 X124.124 Y102.932 E80.23399
G1 X123.365 Y103.06 E80.31712
G1 X122.516 Y103.109 E80.40896
G1 X117.492 Y103.109 E80.95155
G1 X116.724 Y103.069 E81.03461
G1 X115.964 Y102.95 E81.11769
G1 X115.221 Y102.752 E81.20073
G1 X114.502 Y102.478 E81.28383
G1 X113.524 Y101.983 E81.40222
G1 X113.242 Y102.17 E81.43876
G1 X112.559 Y102.525 E81.52189
G1 X111.844 Y102.806 E81.60486
G1 X111.102 Y103.012 E81.68803
G1 X110.344 Y103.14 E81.77105
G1 X109.495 Y103.189 E81.8629
G1 X107.42 Y103.189 E82.087
G1 X106.652 Y103.149 E82.17005
G1 X105.892 Y103.03 E82.25313
G1 X105.149 Y102.832 E82.33618
G1 X104.43 Y102.558 E82.41928
G1 X103.744 Y102.211 E82.5023
G1 X103.259 Y101.899 E82.56459
G1 X102.848 Y102.17 E82.61776
G1 X102.023 Y102.599 E82.71818
G1 X102.023 Y115.211 E84.08028
G1 X122.07 Y115.211 E86.24535
G1 X122.838 Y115.251 E86.32841
G1 X123.598 Y115.37 E86.41149
G1 X124.341 Y115.568 E86.49453
G1 X125.06 Y115.842 E86.57763
G1 X125.746 Y116.189 E86.66066
G1 X126.393 Y116.605 E86.74373
G1 X126.993 Y117.086 E86.82679
G1 X127.552 Y117.642 E86.91194
G1 X128.177 Y117.468 E86.982
G1 X128.936 Y117.34 E87.06513
G1 X129.785 Y117.291 E87.15698
G1 X132.267 Y117.291 E87.42503
G1 X133.035 Y117.331 E87.50809
G1 X133.795 Y117.45 E87.59117
G1 X134.515 Y117.642 E87.67165
G1 X134.933 Y117.208 E87.73672
G1 X135.521 Y116.712 E87.8198
G1 X136.157 Y116.28 E87.90284
G1 X136.835 Y115.917 E87.9859
G1 X137.547 Y115.626 E88.06897
G1 X138.285 Y115.41 E88.15202
G1 X139.042 Y115.272 E88.23512
G1 X139.989 Y115.211 E88.33761
G1 X159.858 Y115.211 E90.48346
G1 X160.626 Y115.251 E90.56652
G1 X161.386 Y115.37 E90.6496
G1 X162.129 Y115.568 E90.73264
G1 X162.848 Y115.842 E90.81574
G1 X163.534 Y116.189 E90.89877
G1 X164.181 Y116.605 E90.98184
G1 X164.781 Y117.086 E91.06489
G1 X165.328 Y117.627 E91.14798
G1 X165.816 Y118.222 E91.23109
G1 X166.239 Y118.864 E91.31412
G1 X166.594 Y119.547 E91.39726
G1 X166.875 Y120.262 E91.48023
G1 X167.081 Y121.004 E91.56339
G1 X167.209 Y121.762 E91.64642
G1 X167.258 Y122.608 E91.73794
G1 X167.259 Y125.064 E92.00318
G1 X167.245 Y125.616 E92.06282
G1 X167.244 Y156.354 E95.38252
G1 X167.259 Y156.936 E95.4454
G1 X167.259 Y159.381 E95.70946
G1 X167.219 Y160.149 E95.79252
G1 X167.1 Y160.909 E95.8756
G1 X166.902 Y161.652 E95.95864
G1 X166.628 Y162.371 E96.04174
G1 X166.281 Y163.057 E96.12477
G1 X165.865 Y163.704 E96.20784
G1 X165.384 Y164.304 E96.29089
G1 X164.843 Y164.851 E96.37398
G1 X164.248 Y165.339 E96.45709
G1 X163.606 Y165.762 E96.54012
G1 X162.923 Y166.117 E96.62326
G1 X162.208 Y166.398 E96.70623
G1 X161.466 Y166.604 E96.78939
G1 X160.708 Y166.732 E96.87242
G1 X159.859 Y166.781 E96.96426
G1 X139.983 Y166.781 E99.11087
G1 X139.215 Y166.741 E99.19393
G1 X138.455 Y166.622 E99.27701
G1 X137.712 Y166.424 E99.36005
G1 X136.993 Y166.15 E99.44315
G1 X136.307 Y165.803 E99.52618
G1 X135.66 Y165.387 E99.60925
G1 X135.06 Y164.906 E99.6923
G1 X134.501 Y164.35 E99.77745
G1 X133.876 Y164.524 E99.84752
G1 X133.117 Y164.652 E99.93065
G1 X132.268 Y164.701 E100.02249
G1 X129.786 Y164.701 E100.29055
G1 X129.018 Y164.661 E100.37361
G1 X128.258 Y164.542 E100.45669
G1 X127.538 Y164.35 E100.53716
G1 X127.117 Y164.787 E100.6027
G1 X126.529 Y165.282 E100.68571
G1 X125.892 Y165.714 E100.76883
G1 X125.214 Y166.077 E100.85189
G1 X124.502 Y166.368 E100.93496
G1 X123.763 Y166.583 E101.01808
G1 X123.007 Y166.721 E101.10108
G1 X122.064 Y166.781 E101.20313
G1 X99.263 Y166.781 E103.66564
G1 X98.495 Y166.741 E103.74869
G1 X97.735 Y166.622 E103.83177
G1 X96.992 Y166.424 E103.91482
G1 X96.273 Y166.15 E103.99792
G1 X95.587 Y165.803 E104.08095
G1 X94.94 Y165.387 E104.16402
G1 X94.34 Y164.906 E104.24707
G1 X93.793 Y164.365 E104.33016
G1 X93.305 Y163.77 E104.41327
G1 X92.882 Y163.128 E104.4963
G1 X92.527 Y162.445 E104.57943
G1 X92.246 Y161.73 E104.6624
G1 X92.04 Y160.988 E104.74557
G1 X91.912 Y160.23 E104.82859
G1 X91.863 Y159.381 E104.92044
G1 X91.863 Y149.854 E105.94935
G1 X62.453 Y149.853 E109.12563
G1 X61.685 Y149.813 E109.20869
G1 X60.925 Y149.693 E109.29179
G1 X60.182 Y149.496 E109.3748
G1 X59.463 Y149.222 E109.4579
G1 X58.776 Y148.875 E109.54103
G1 X58.13 Y148.459 E109.62401
G1 X57.53 Y147.977 E109.70713
G1 X56.983 Y147.437 E109.79014
G1 X56.495 Y146.842 E109.87325
G1 X56.072 Y146.2 E109.95628
G1 X55.717 Y145.517 E110.03942
G1 X55.435 Y144.801 E110.12253
G1 X55.23 Y144.06 E110.20556
G1 X55.102 Y143.302 E110.28858
G1 X55.039 Y142.209 E110.40682
G1 X55.093 Y141.17 E110.51919
G1 X55.212 Y140.41 E110.60227
G1 X55.451 Y139.514 E110.70242
G1 X55.23 Y138.718 E110.79164
G1 X55.102 Y137.959 E110.87477
G1 X55.053 Y137.11 E110.96661
G1 X55.053 Y91.597 E115.88202
G1 X55.093 Y90.829 E115.96507
G1 X55.212 Y90.069 E116.04815
G1 X55.41 Y89.326 E116.1312
G1 X55.684 Y88.607 E116.2143
G1 X56.031 Y87.921 E116.29732
G1 X56.447 Y87.274 E116.3804
